img/icon-logout.svg

<svg fill="none" height="17" viewBox="0 0 20 17" width="20" xmlns="http://www.w3.org/2000/svg"><g fill="#c5c5c5"><path d="m20 8.5-8.875-8.5v6h-6v5h6v6z"/><path d="m2.10591 13.952v-10.904c.018-.376.171-1.057 1.01-1.057h5.027v-1.991h-5.027c-2.177996 0-3.003996 1.81-3.0289959 3.027v10.946c.0249999 1.216.8509999 3.027 3.0289959 3.027h5.027v-1.99h-5.027c-.839 0-.992-.683-1.01-1.058z"/></g></svg>

<svg width="20" height="17" viewBox="0 0 20 17" fill="none" xmlns="http://www.w3.org/2000/svg">
  <path d="M20 8.5L11.125 0V6H5.125V11H11.125V17L20 8.5Z" fill="#C5C5C5"/>
  <path d="M2.10591 13.952V3.048C2.12391 2.672 2.27691 1.991 3.11591 1.991H8.14291V0H3.11591C0.937914 0 0.111914 1.81 0.0869141 3.027V13.973C0.111914 15.189 0.937914 17 3.11591 17H8.14291V15.01H3.11591C2.27691 15.01 2.12391 14.327 2.10591 13.952Z" fill="#C5C5C5"/>
</svg>
